assets/images/switcher.svg

<svg width="88" height="32" viewBox="0 0 88 32" fill="none" xmlns="http://www.w3.org/2000/svg">
<rect x="0.5" y="1" width="87" height="30" fill="#F4F7F8"/>
<rect x="0.5" y="1" width="87" height="30" stroke="#E8EDF1"/>
<g clip-path="url(#clip0_137_238)">
<mask id="mask0_137_238" style="mask-type:alpha" maskUnits="userSpaceOnUse" x="8" y="7" width="18" height="18">
<path d="M17 25C21.9706 25 26 20.9706 26 16C26 11.0294 21.9706 7 17 7C12.0294 7 8 11.0294 8 16C8 20.9706 12.0294 25 17 25Z" fill="black"/>
</mask>
<g mask="url(#mask0_137_238)">
<path fill-rule="evenodd" clip-rule="evenodd" d="M20.0069 10.1656C20.6616 11.6931 21.05 13.7564 21.05 16C21.05 18.2435 20.6616 20.3068 20.0069 21.8343C19.6801 22.5969 19.2736 23.2571 18.7879 23.7365C18.2992 24.2188 17.6943 24.55 17 24.55V23.2C17.2377 23.2 17.5207 23.0904 17.8396 22.7757C18.1614 22.4581 18.4821 21.965 18.7661 21.3025C19.3329 19.9799 19.7 18.1056 19.7 16C19.7 13.8943 19.3329 12.02 18.7661 10.6974C18.4821 10.0349 18.1614 9.54183 17.8396 9.22424C17.5207 8.90951 17.2377 8.79995 17 8.79995V7.44995C17.6943 7.44995 18.2992 7.78111 18.7879 8.26338C19.2736 8.74278 19.6801 9.40302 20.0069 10.1656Z" fill="#242343"/>
<path fill-rule="evenodd" clip-rule="evenodd" d="M15.2341 10.6974C14.6673 12.02 14.3002 13.8943 14.3002 16C14.3002 18.1056 14.6673 19.9799 15.2341 21.3025C15.5181 21.965 15.8388 22.4581 16.1606 22.7757C16.4795 23.0904 16.7625 23.2 17.0002 23.2V24.55C16.3059 24.55 15.701 24.2188 15.2123 23.7365C14.7266 23.2571 14.3201 22.5969 13.9933 21.8343C13.3386 20.3068 12.9502 18.2436 12.9502 16C12.9502 13.7564 13.3386 11.6931 13.9933 10.1656C14.3201 9.40302 14.7266 8.74278 15.2123 8.26338C15.701 7.78111 16.3059 7.44995 17.0002 7.44995V8.79995C16.7625 8.79995 16.4795 8.90951 16.1606 9.22424C15.8388 9.54183 15.5181 10.0349 15.2341 10.6974Z" fill="#242343"/>
<path fill-rule="evenodd" clip-rule="evenodd" d="M26 14.425H8V13.075H26V14.425Z" fill="#242343"/>
<path fill-rule="evenodd" clip-rule="evenodd" d="M26 18.925H8V17.575H26V18.925Z" fill="#242343"/>
</g>
<path fill-rule="evenodd" clip-rule="evenodd" d="M17 8.35C12.775 8.35 9.35 11.775 9.35 16C9.35 20.225 12.775 23.65 17 23.65C21.225 23.65 24.65 20.225 24.65 16C24.65 11.775 21.225 8.35 17 8.35ZM8 16C8 11.0294 12.0294 7 17 7C21.9706 7 26 11.0294 26 16C26 20.9706 21.9706 25 17 25C12.0294 25 8 20.9706 8 16Z" fill="#242343"/>
</g>
<path d="M31.994 20.5V10.7H39.218V11.988H33.464V14.928H37.244V16.174H33.464V19.212H39.274V20.5H31.994ZM40.785 20.5V10.7H42.213L47.687 17.98V10.7H49.073V20.5H47.785L42.185 12.996V20.5H40.785ZM55.7839 20.654C55.0653 20.654 54.3933 20.5233 53.7679 20.262C53.1519 20.0007 52.6106 19.6413 52.1439 19.184C51.6773 18.7173 51.3133 18.1807 51.0519 17.574C50.7906 16.958 50.6599 16.3 50.6599 15.6C50.6599 14.9 50.7859 14.2467 51.0379 13.64C51.2993 13.024 51.6633 12.4873 52.1299 12.03C52.5966 11.5633 53.1379 11.1993 53.7539 10.938C54.3699 10.6767 55.0373 10.546 55.7559 10.546C56.5306 10.546 57.2633 10.6953 57.9539 10.994C58.6446 11.2927 59.2279 11.708 59.7039 12.24L58.6959 13.22C58.3413 12.8 57.9026 12.478 57.3799 12.254C56.8666 12.0207 56.3253 11.904 55.7559 11.904C55.2426 11.904 54.7666 11.9973 54.3279 12.184C53.8986 12.3707 53.5206 12.632 53.1939 12.968C52.8673 13.2947 52.6106 13.682 52.4239 14.13C52.2466 14.578 52.1579 15.068 52.1579 15.6C52.1579 16.1227 52.2466 16.6127 52.4239 17.07C52.6106 17.518 52.8673 17.91 53.1939 18.246C53.5299 18.582 53.9173 18.8433 54.3559 19.03C54.7946 19.2167 55.2706 19.31 55.7839 19.31C56.3626 19.31 56.8853 19.1887 57.3519 18.946C57.8279 18.7033 58.2153 18.372 58.5139 17.952C58.8126 17.5227 58.9946 17.042 59.0599 16.51H55.7979V15.222H60.5999V15.726C60.5999 16.426 60.4786 17.0747 60.2359 17.672C59.9933 18.2693 59.6526 18.792 59.2139 19.24C58.7846 19.688 58.2759 20.038 57.6879 20.29C57.0999 20.5327 56.4653 20.654 55.7839 20.654Z" fill="#242343"/>
<path d="M75 19L70.6699 14L79.3301 14L75 19Z" fill="#242343"/>
<defs>
<clipPath id="clip0_137_238">
<rect width="18" height="18" fill="white" transform="translate(8 7)"/>
</clipPath>
</defs>
</svg>

<svg width="88" height="32" fill="none" xmlns="http://www.w3.org/2000/svg"><path fill="#F4F7F8" d="M.5 1h87v30H.5z"/><path stroke="#E8EDF1" d="M.5 1h87v30H.5z"/><g clip-path="url(#a)"><mask id="b" style="mask-type:alpha" maskUnits="userSpaceOnUse" x="8" y="7" width="18" height="18"><path d="M17 25a9 9 0 1 0 0-18 9 9 0 0 0 0 18Z" fill="#000"/></mask><g mask="url(#b)" fill-rule="evenodd" clip-rule="evenodd" fill="#242343"><path d="M20.007 10.166c.655 1.527 1.043 3.59 1.043 5.834 0 2.244-.388 4.307-1.043 5.834-.327.763-.733 1.423-1.22 1.902-.488.483-1.093.814-1.787.814V23.2c.238 0 .52-.11.84-.424.321-.318.642-.811.926-1.474.567-1.322.934-3.196.934-5.302 0-2.106-.367-3.98-.934-5.303-.284-.662-.605-1.155-.926-1.473-.32-.314-.602-.424-.84-.424V7.45c.694 0 1.3.331 1.788.813.486.48.892 1.14 1.219 1.903Z"/><path d="M15.234 10.697C14.667 12.02 14.3 13.894 14.3 16s.367 3.98.934 5.302c.284.663.605 1.156.927 1.474.319.314.601.424.84.424v1.35c-.695 0-1.3-.331-1.789-.814-.485-.479-.892-1.14-1.219-1.902-.654-1.527-1.043-3.59-1.043-5.834 0-2.244.389-4.307 1.043-5.834.327-.763.734-1.423 1.22-1.903.488-.482 1.093-.813 1.787-.813V8.8c-.238 0-.52.11-.84.424-.321.318-.642.81-.926 1.473Z"/><path d="M26 14.425H8v-1.35h18v1.35ZM26 18.925H8v-1.35h18v1.35Z"/></g><path fill-rule="evenodd" clip-rule="evenodd" d="M17 8.35a7.65 7.65 0 1 0 0 15.3 7.65 7.65 0 0 0 0-15.3ZM8 16a9 9 0 1 1 18 0 9 9 0 0 1-18 0Z" fill="#242343"/></g><path d="M31.994 20.5v-9.8h7.224v1.288h-5.754v2.94h3.78v1.246h-3.78v3.038h5.81V20.5h-7.28Zm8.791 0v-9.8h1.428l5.474 7.28V10.7h1.386v9.8h-1.288l-5.6-7.504V20.5h-1.4Zm14.999.154c-.719 0-1.39-.13-2.016-.392a5.197 5.197 0 0 1-1.624-1.078 5.125 5.125 0 0 1-1.092-1.61 5.002 5.002 0 0 1-.392-1.974c0-.7.126-1.353.378-1.96a4.92 4.92 0 0 1 1.092-1.61 5.078 5.078 0 0 1 1.624-1.092 5.074 5.074 0 0 1 2.002-.392c.775 0 1.507.15 2.198.448.69.299 1.274.714 1.75 1.246l-1.008.98a3.498 3.498 0 0 0-1.316-.966 3.88 3.88 0 0 0-1.624-.35c-.513 0-.99.093-1.428.28-.43.187-.807.448-1.134.784a3.561 3.561 0 0 0-.77 1.162 3.96 3.96 0 0 0-.266 1.47c0 .523.089 1.013.266 1.47.187.448.443.84.77 1.176a3.609 3.609 0 0 0 2.59 1.064c.579 0 1.101-.121 1.568-.364a3.164 3.164 0 0 0 1.162-.994c.299-.43.48-.91.546-1.442h-3.262v-1.288H60.6v.504c0 .7-.121 1.349-.364 1.946a4.796 4.796 0 0 1-1.022 1.568c-.43.448-.938.798-1.526 1.05a4.94 4.94 0 0 1-1.904.364ZM75 19l-4.33-5h8.66L75 19Z" fill="#242343"/><defs><clipPath id="a"><path fill="#fff" transform="translate(8 7)" d="M0 0h18v18H0z"/></clipPath></defs></svg>
